public/images/hashed/bcbaac048050f6a8fb8975c04c838c47.svg

<svg xmlns="http://www.w3.org/2000/svg" width="80" height="80"><defs><linearGradient id="a" x1="0%" x2="100%" y1="100%" y2="0%"><stop offset="0%" stop-color="#4D27A8"/><stop offset="100%" stop-color="#A166FF"/></linearGradient></defs><g fill="none" fill-rule="evenodd"><path fill="url(#a)" d="M0 0h80v80H0z"/><path fill="#FFF" d="M64 62h-3c-.448 0-1-.551-1-1v-2h5v2c0 .449-.552 1-1 1Zm-42-3h36v-3H22v3Zm-3 3h-3c-.663 0-1-.336-1-1v-2h5v2c0 .372-.211 1-1 1Zm-3-30h3c.448 0 1 .551 1 1v3h-5v-3c0-.449.552-1 1-1Zm21.008 3H58v3H22v-3h15.008Zm1.002-7H42l-.001 5h-3.991l.002-5ZM33 26a1 1 0 0 0-.991.866c-.116.05-.403.134-1.009.134-1.267 0-2-.376-2-2.3 0-1.792.673-2.7 2-2.7.575 0 .885.088 1.011.148A1 1 0 0 0 33 23h13a1 1 0 0 0 .986-.833C47.093 22.11 47.38 22 48 22c1.094 0 2 .19 2 2.531C50 26.587 49.234 27 48 27c-.597 0-.886-.074-1.007-.121A1 1 0 0 0 46 26H33Zm7-8c1.582 0 2 1.962 2 3h-4c0-1.038.418-3 2-3Zm20 39h5V38h-5v19Zm-38-3h36V40H22v14Zm-7 3h5V38h-5v19Zm46-25h3c.454 0 1 .614 1 1v3h-5v-3c0-.386.546-1 1-1Zm3-2h-3c-1.514 0-3 1.486-3 3H43.999L44 28h1.286c.356.533 1.121 1 2.714 1 1.825 0 4-.775 4-4.469C52 21.524 50.654 20 48 20c-1.416 0-2.248.441-2.664 1H44c0-2.485-1.374-5-4-5s-4 2.515-4 5h-2.315c-.358-.51-1.111-1-2.685-1-1.934 0-4 1.235-4 4.7 0 2.773 1.421 4.3 4 4.3 1.588 0 2.345-.481 2.7-1h2.31l-.002 5H22c0-1.542-1.458-3-3-3h-3c-1.542 0-3 1.458-3 3v28c0 1.767 1.233 3 3 3h3c1.948 0 3-1.546 3-3h36c0 1.542 1.458 3 3 3h3c1.542 0 3-1.458 3-3V33c0-1.514-1.486-3-3-3Z"/></g></svg>

<?xml version="1.0" encoding="UTF-8"?>
<svg width="80px" height="80px" viewBox="0 0 80 80" version="1.1" xmlns="http://www.w3.org/2000/svg" xmlns:xlink="http://www.w3.org/1999/xlink">
    <!-- Generator: Sketch 64 (93537) - https://sketch.com -->
    <title>Icon-Architecture/64/Arch_AWS-Data-Pipeline_64</title>
    <desc>Created with Sketch.</desc>
    <defs>
        <linearGradient x1="0%" y1="100%" x2="100%" y2="0%" id="linearGradient-1">
            <stop stop-color="#4D27A8" offset="0%"></stop>
            <stop stop-color="#A166FF" offset="100%"></stop>
        </linearGradient>
    </defs>
    <g id="Icon-Architecture/64/Arch_AWS-Data-Pipeline_64" stroke="none" stroke-width="1" fill="none" fill-rule="evenodd">
        <g id="Icon-Architecture-BG/64/Analytics" fill="url(#linearGradient-1)">
            <rect id="Rectangle" x="0" y="0" width="80" height="80"></rect>
        </g>
        <path d="M64,62 L61,62 C60.552,62 60,61.449 60,61 L60,59 L65,59 L65,61 C65,61.449 64.448,62 64,62 L64,62 Z M22,59 L58,59 L58,56 L22,56 L22,59 Z M19,62 L16,62 C15.337,62 15,61.664 15,61 L15,59 L20,59 L20,61 C20,61.372 19.789,62 19,62 L19,62 Z M16,32 L19,32 C19.448,32 20,32.551 20,33 L20,36 L15,36 L15,33 C15,32.551 15.552,32 16,32 L16,32 Z M37.008,35 L42.999,35 L58,35 L58,38 L22,38 L22,35 L37.008,35 Z M38.01,28 L42,28 L41.999,33 L38.008,33 L38.01,28 Z M33,26 C32.493,26 32.074,26.377 32.009,26.866 C31.893,26.916 31.606,27 31,27 C29.733,27 29,26.624 29,24.7 C29,22.908 29.673,22 31,22 C31.575,22 31.885,22.088 32.011,22.148 C32.082,22.63 32.498,23 33,23 L46,23 C46.495,23 46.906,22.64 46.986,22.167 C47.093,22.11 47.38,22 48,22 C49.094,22 50,22.19 50,24.531 C50,26.587 49.234,27 48,27 C47.403,27 47.114,26.926 46.993,26.879 C46.934,26.384 46.512,26 46,26 L44,26 L42,26 L38.01,26 L36.01,26 L33,26 Z M40,18 C41.582,18 42,19.962 42,21 L38,21 C38,19.962 38.418,18 40,18 L40,18 Z M60,57 L65,57 L65,38 L60,38 L60,57 Z M22,54 L58,54 L58,40 L22,40 L22,54 Z M15,57 L20,57 L20,38 L15,38 L15,57 Z M61,32 L64,32 C64.454,32 65,32.614 65,33 L65,36 L60,36 L60,33 C60,32.614 60.546,32 61,32 L61,32 Z M64,30 L61,30 C59.486,30 58,31.486 58,33 L43.999,33 L44,28 L45.286,28 C45.642,28.533 46.407,29 48,29 C49.825,29 52,28.225 52,24.531 C52,21.524 50.654,20 48,20 C46.584,20 45.752,20.441 45.336,21 L44,21 C44,18.515 42.626,16 40,16 C37.374,16 36,18.515 36,21 L33.685,21 C33.327,20.49 32.574,20 31,20 C29.066,20 27,21.235 27,24.7 C27,27.473 28.421,29 31,29 C32.588,29 33.345,28.519 33.7,28 L36.01,28 L36.008,33 L22,33 C22,31.458 20.542,30 19,30 L16,30 C14.458,30 13,31.458 13,33 L13,61 C13,62.767 14.233,64 16,64 L19,64 C20.948,64 22,62.454 22,61 L58,61 C58,62.542 59.458,64 61,64 L64,64 C65.542,64 67,62.542 67,61 L67,33 C67,31.486 65.514,30 64,30 L64,30 Z" id="AWS-Data-Pipeline_Icon_64_Squid" fill="#FFFFFF"></path>
    </g>
</svg>
